Papirus/22x22/panel/krb-valid-ticket.svg

<?xml version="1.0" encoding="UTF-8" standalone="no"?>
<svg xmlns:dc="http://purl.org/dc/elements/1.1/" xmlns:cc="http://creativecommons.org/ns#" xmlns:rdf="http://www.w3.org/1999/02/22-rdf-syntax-ns#" xmlns:svg="http://www.w3.org/2000/svg" xmlns="http://www.w3.org/2000/svg" version="1.1" width="22" viewBox="0 0 22 22" height="22" id="svg6530">
    <metadata id="metadata6535">
        <rdf:RDF>
            <cc:Work rdf:about="">
                <dc:format>
                    image/svg+xml
                </dc:format>
                <dc:type rdf:resource="http://purl.org/dc/dcmitype/StillImage"/>
                <dc:title/>
            </cc:Work>
        </rdf:RDF>
    </metadata>
    <path id="path11082" style="fill:#ffffff;enable-background:new;opacity:1" d="M 7.5,7 C 5.0147,7 3,9.0147 3,11.5 3,13.9853 5.0147,16 7.5,16 9.4047,15.997 11.1014,14.7958 11.7363,13 L 15,12.996 l 0,2 3,0 0,-2.0039 1,0.004 0,-3 -7.2637,0.004 C 11.1014,8.2043 9.4047,7.0028 7.5,7.0001 Z m 0,3 C 8.32843,10 9,10.67157 9,11.5 9,12.32843 8.32843,13 7.5,13 6.67157,13 6,12.32843 6,11.5 6,10.67157 6.67157,10 7.5,10 Z"/>
</svg>

<?xml version="1.0" encoding="UTF-8" standalone="no"?>
<svg id="svg6530" xmlns:rdf="http://www.w3.org/1999/02/22-rdf-syntax-ns#" xmlns="http://www.w3.org/2000/svg" height="22" width="22" version="1.1" xmlns:cc="http://creativecommons.org/ns#" viewBox="0 0 22 22" xmlns:dc="http://purl.org/dc/elements/1.1/">
 <metadata id="metadata6535">
  <rdf:RDF>
   <cc:Work rdf:about="">
    <dc:format>image/svg+xml</dc:format>
    <dc:type rdf:resource="http://purl.org/dc/dcmitype/StillImage"/>
    <dc:title/>
   </cc:Work>
  </rdf:RDF>
 </metadata>
 <path id="path11082" style="enable-background:new" fill="#fff" d="m7.5 7c-2.4853 0-4.5 2.0147-4.5 4.5 0 2.485 2.0147 4.5 4.5 4.5 1.9047-0.003 3.601-1.204 4.236-3l3.264-0.004v2h3v-2.0039l1 0.004v-3l-7.2637 0.004c-0.635-1.7957-2.3313-2.9972-4.236-2.9999zm0 3c0.8284 0 1.5 0.672 1.5 1.5s-0.6716 1.5-1.5 1.5-1.5-0.672-1.5-1.5 0.6716-1.5 1.5-1.5z"/>
</svg>
